X:3054
T:Citadel Waltz
C:Andy De Jarlis
M:3/4
L:1/8
K:D
AG|F2 A2 d2|f3 d AF|E2 F2 G2|B4 B2|!
AB cd ef|g3 g fg|b4 ag|f4 AG|!
F2 A2 d2|f3 d AF|E2 F2 G2|B4 B2|!
AB cd ef|g2 B2 c2|d6 -|d2 z2:|!
|:a2|a2 ^ga ba|f2 z ^e fa|g2 f2 e2|B4 B2|!
AB cd ef|g3 g fg|b4 ag|f4 a2|!
a2 ^ga ba|f2 z ^e fa|g2 f2 e2|B4 B2|!
AB cd ef|g2 B2 c2|d6 -|d2 z2:|!


